svg/newspaper_remove.svg

<svg xmlns="http://www.w3.org/2000/svg" viewBox="0 0 24 24"><path d="m20.12 14.46 1.42 1.42L19.41 18l2.13 2.12-1.42 1.42L18 19.41l-2.12 2.13-1.41-1.42L16.59 18l-2.12-2.12 1.41-1.41L18 16.59zm.21-9.79L18.67 3 17 4.67 15.33 3l-1.66 1.67L12 3l-1.67 1.67L8.67 3 7 4.67 5.33 3 3.67 4.67 2 3v16a2 2 0 0 0 2 2h8.8c-.51-.88-.8-1.91-.8-3 0-1.23.37-2.37 1-3.32V13h1.68c.95-.63 2.09-1 3.32-1 1.53 0 2.93.58 4 1.5V3zM11 19H4v-6h7zm9-8H4V8h16z"/></svg>

<svg xmlns="http://www.w3.org/2000/svg" id="mdi-newspaper-remove" viewBox="0 0 24 24"><path d="M20.12 14.46L21.54 15.88L19.41 18L21.54 20.12L20.12 21.54L18 19.41L15.88 21.54L14.47 20.12L16.59 18L14.47 15.88L15.88 14.47L18 16.59L20.12 14.46M20.33 4.67L18.67 3L17 4.67L15.33 3L13.67 4.67L12 3L10.33 4.67L8.67 3L7 4.67L5.33 3L3.67 4.67L2 3V19C2 20.11 2.9 21 4 21H12.8C12.29 20.12 12 19.09 12 18C12 16.77 12.37 15.63 13 14.68V13H14.68C15.63 12.37 16.77 12 18 12C19.53 12 20.93 12.58 22 13.5V3L20.33 4.67M11 19H4V13H11V19M20 11H4V8H20V11Z" /></svg>
